assets/img/braze_icons/git-branch-02.svg

<svg fill="none" height="24" viewBox="0 0 24 24" width="24" xmlns="http://www.w3.org/2000/svg"><path clip-rule="evenodd" d="m7 3c0-.55228-.44772-1-1-1s-1 .44772-1 1v11.126c-1.72523.4441-3 2.0102-3 3.874 0 2.2091 1.79086 4 4 4 1.8779 0 3.45354-1.2941 3.88383-3.0391 2.32817-.2065 4.52137-1.2239 6.18727-2.8898s2.6833-3.8591 2.8898-6.18727c1.745-.43029 3.0391-2.00593 3.0391-3.88383 0-2.20914-1.7909-4-4-4s-4 1.79086-4 4c0 1.84705 1.2519 3.4017 2.9535 3.86171-.1955 1.80489-1.0009 3.49939-2.2966 4.79519-1.2958 1.2957-2.9903 2.1011-4.79519 2.2966-.37402-1.3835-1.47165-2.4697-2.86171-2.8275z" fill="#801ed7" fill-rule="evenodd"/></svg>

<svg width="24" height="24" viewBox="0 0 24 24" fill="none" xmlns="http://www.w3.org/2000/svg">
<path fill-rule="evenodd" clip-rule="evenodd" d="M7 3C7 2.44772 6.55228 2 6 2C5.44772 2 5 2.44772 5 3V14.126C3.27477 14.5701 2 16.1362 2 18C2 20.2091 3.79086 22 6 22C7.8779 22 9.45354 20.7059 9.88383 18.9609C12.212 18.7544 14.4052 17.737 16.0711 16.0711C17.737 14.4052 18.7544 12.212 18.9609 9.88383C20.7059 9.45354 22 7.8779 22 6C22 3.79086 20.2091 2 18 2C15.7909 2 14 3.79086 14 6C14 7.84705 15.2519 9.4017 16.9535 9.86171C16.758 11.6666 15.9526 13.3611 14.6569 14.6569C13.3611 15.9526 11.6666 16.758 9.86171 16.9535C9.48769 15.57 8.39006 14.4838 7 14.126V3Z" fill="#801ED7"/>
</svg>
